!!!OTL: 351. Der Tod und der Trinker. / Aeltere Melodie.
!!!ODT: 1758
!!!ARE: Europa, Mitteleuropa, Deutschland
!!!SCT: B0351
!!!TXL: @@DE
!!!YEM: Copyright 1995, estate of Helmut Schaffrath.
**kern	**text
*ICvox	*
*Ivox	*
*clefG2	*
*M2/4	*
*k[b-e-a-]	*
*E-:	*
=1	=1
!LO:TX:a:t=Orig. G dur	!
!LO:TX:a:t=Etwas langſam.	!
{8e-	Ge-
8g	-ſtern,
8b-/	Brü-
8g	-der,
=2	=2
8a-	könnt
8cc	ihrs
8cc	glau-
8b-}	-ben?
=3	=3
{8ee-	Ge-
8cc	-ſtern
8b-	bei
8a-	dem
=4	=4
(16a-qq	.
8g)	Saft
(16fqq	.
8e-)	der
8f	Trau-
8B-}	-ben,
=5	=5
{8g	ſtellt
8an	euch
8b-	mein
8g	Ent-
=6	=6
8f	-ſe-
8ee-	-tʒen
(8ee-qq	.
4dd)}	für:
=7	=7
{8ee-	ge-
8a-	-ſtern
8g	kam
8e-	der
=8	=8
8f	Tod
8d	ʒu
4e-}	mit.
==	==
!!!AGN: Trink - Lied
!!!GTL: Wein- und Trinklieder
!!!ONB: ESAC (Essen Associative Code) Database: BOEHME
!!!AMT: simple duple
!!!AIN: vox
!!!EED: Helmut Schaffrath
!!!EEV: 1.0
!!Aus "Lieder mit Melodien". Anſpach bey Poſch. 1758. Nr. 23.
!!@@COMMENT:"Gedicht von Leſſing. Ʒuerſt in deſſen "Ermunterungen ʒum Vergnügen des Gemüths.
!!Hamburg 1747. 5. Stück, S. 398. Dann in deſſen Kleinigkeiten" Frankfurt und Leipʒig 1751.
!!Später (1771) hat Leſſing ſelbſt die letʒten Ʒeilen geändert der erſten Strophe: "Bildet euch mein
!!Schrecken ein! Kam der Tod ʒu mir herein.[...]"
!!@@END:
!!!Text: G. E. Lessing
!!!URL-scan: https://archive.org/details/BoehmeVtLieder1895/page/n293/mode/2up
!!!ENC: Anna Maria Matuszewska
!!!EEV: 2024/05/07
*-	*-
